img/icon/donation.svg

<svg width="38" height="38" viewBox="0 0 38 38" fill="none" xmlns="http://www.w3.org/2000/svg">
<g opacity="0.2">
<rect x="1" y="1" width="36" height="36" rx="12" stroke="#1565D8" stroke-width="0.75"/>
</g>
<path fill-rule="evenodd" clip-rule="evenodd" d="M19.663 20.6181C20.1854 19.483 19.7039 18.5478 18.3738 17.9686L16.1701 17.0587C15.4562 16.7639 14.6382 16.8854 14.0406 17.3749L12.014 19.0349L11.955 19.6259L11.8601 24.4599V25.2999H14.3121L19.3127 26.7208C19.9436 26.9 20.6219 26.7738 21.1462 26.3797C24.4412 23.9031 26.6427 22.2307 26.9761 21.9207C27.7844 21.1692 28.1026 20.3336 27.5267 19.51C27.0612 18.8442 26.2761 18.7732 25.3031 19.2137L20.5707 21.6205L19.24 21.1974C19.4116 21.0494 19.5531 20.8568 19.663 20.6181Z" fill="#1565D8"/>
<path opacity="0.3" fill-rule="evenodd" clip-rule="evenodd" d="M24.2107 11.8609H23.2001V11.6505C23.2001 11.3023 22.918 11.02 22.5701 11.02C22.2221 11.02 21.9401 11.3023 21.9401 11.6505V11.8609H21.7418C20.9299 11.8609 20.2718 12.5198 20.2718 13.3323V13.7534C20.2718 14.566 20.9299 15.2248 21.7418 15.2248H23.4101C23.526 15.2248 23.6201 15.319 23.6201 15.4353V15.8551C23.6201 15.9714 23.526 16.0655 23.4101 16.0655H21.4824C21.3892 15.8444 21.1736 15.6881 20.9209 15.6804C20.5731 15.6698 20.2826 15.9434 20.2721 16.2914L20.2604 16.6768C20.2496 17.0323 20.5346 17.3265 20.8901 17.3265H21.9401V17.5296C21.9401 17.8777 22.2221 18.16 22.5701 18.16C22.918 18.16 23.2001 17.8777 23.2001 17.5296V17.3265H23.4101C24.222 17.3265 24.8801 16.6677 24.8801 15.8551V15.4353C24.8801 14.6227 24.222 13.9639 23.4101 13.9639H21.7418C21.6258 13.9639 21.5318 13.8697 21.5318 13.7534V13.3323C21.5318 13.216 21.6258 13.1219 21.7418 13.1219H23.6631C23.7726 13.314 23.979 13.4402 24.2107 13.4402C24.5587 13.4402 24.8407 13.1579 24.8407 12.8097V12.4914C24.8407 12.1433 24.5587 11.8609 24.2107 11.8609ZM11.4401 17.95H11.6501V25.93H11.4401C11.0921 25.93 10.8101 26.2121 10.8101 26.56C10.8101 26.908 11.0921 27.19 11.4401 27.19H12.2801C12.628 27.19 12.9101 26.908 12.9101 26.56V17.32C12.9101 16.9721 12.628 16.69 12.2801 16.69H11.4401C11.0921 16.69 10.8101 16.9721 10.8101 17.32C10.8101 17.668 11.0921 17.95 11.4401 17.95Z" fill="#1565D8"/>
</svg>

<svg xmlns="http://www.w3.org/2000/svg" fill="none" viewBox="0 0 38 38"><rect width="36" height="36" x="1" y="1" stroke="#1565D8" stroke-width=".75" opacity=".2" rx="12"/><path fill="#1565D8" fill-rule="evenodd" d="M19.663 20.618c.522-1.135.04-2.07-1.29-2.65l-2.203-.91a2.097 2.097 0 0 0-2.13.317l-2.026 1.66-.059.59-.095 4.835v.84h2.452l5 1.42c.632.18 1.31.054 1.834-.34 3.295-2.477 5.497-4.15 5.83-4.46.808-.75 1.127-1.586.55-2.41-.465-.666-1.25-.737-2.223-.296l-4.732 2.407-1.331-.424c.172-.148.313-.34.423-.579z" clip-rule="evenodd"/><path fill="#1565D8" fill-rule="evenodd" d="M24.21 11.86H23.2v-.21a.63.63 0 1 0-1.26 0v.21h-.198a1.47 1.47 0 0 0-1.47 1.472v.421a1.47 1.47 0 0 0 1.47 1.472h1.668a.21.21 0 0 1 .21.21v.42a.21.21 0 0 1-.21.21h-1.928a.63.63 0 0 0-1.21.226l-.012.386a.63.63 0 0 0 .63.65h1.05v.203a.63.63 0 1 0 1.26 0v-.204h.21a1.47 1.47 0 0 0 1.47-1.47v-.42a1.47 1.47 0 0 0-1.47-1.472h-1.668a.21.21 0 0 1-.21-.21v-.422a.21.21 0 0 1 .21-.21h1.921a.63.63 0 0 0 1.178-.312v-.319a.63.63 0 0 0-.63-.63zm-12.77 6.09h.21v7.98h-.21a.63.63 0 1 0 0 1.26h.84a.63.63 0 0 0 .63-.63v-9.24a.63.63 0 0 0-.63-.63h-.84a.63.63 0 1 0 0 1.26z" clip-rule="evenodd" opacity=".3"/></svg>
